X:0903
M:6/8
L:1/8
Q:3/8=120
K:D
d2e fgf|e2d c2A|d2e fgf|e3 A3|d2e fgf|e2d cBc|dcB AFA|B3 d3:|

